X:1
T:Title
%%score { ( 1 3 ) | ( 2 4 ) }
L:1/8
Q:1/4=78
M:6/8
K:C
V:1 treble nm="Grand Piano"
V:3 treble 
V:2 bass 
V:4 bass 
V:1
 [EG]>[FA][EG] [Ec][GB][FA] | [EG]>[FA][EG] .[CE]3 | [EG]>[FA][EG] [CG][G,B,F][K:bass][G,CE] | %3
w: Benjamin~Franklin~Butts * * * * *|||
 [G,CE][F,B,D][E,C] .[B,D]3 | [EG]>[FA][EG] [Ec][GB]A | ccB .A3 | [EG][EG][Ec] [EG][CE][Ec] | %7
w: ||||
 [FB][FA][FB] .[Ec]3 | d>dd BAG | [Ec]2 [FA] [EG]2 [EG] | d>dd BAG | [Ec]2 [FA] [EG]2 [EG] | %12
w: |||||
 AFA c2 B/A/ | [EG][CE][EG] .[Ec]3 | B>BB BGd | c2- [Fc-] [Ec]3 |] %16
w: ||||
V:2
 [C,C]>[C,C][C,C] [C,G,][C,C][C,C] | [C,C]>[C,C][C,C] .[C,G,]3 | [C,C]>[C,C][C,C] E,E,C, | %3
 G,,G,,A,, .[G,,G,]3 | [C,C]>[C,C][C,C] [C,G,][E,C][F,CF] | [F,A,F][F,A,F][F,B,F] .[F,CF]3 | %6
 [C,C][C,C][C,G,] [C,C][C,G,][C,G,] | [G,,G,][G,,G,][G,,G,] .[C,G,]3 | %8
 [G,B,F]>[G,B,F][G,B,F] [G,DF][G,CF][G,B,F] | [C,G,]2 [C,C] [C,C]2 [C,C] | %10
 [G,B,F]>[G,B,F][G,B,F] [G,DF][G,CF][G,B,F] | [C,G,]2 [C,C] [C,C]2 [C,C] | %12
 [F,CF][F,A,][F,CF] [F,A,F]2 [F,B,F]/[F,CF]/ | [C,C][C,G,][C,C] .[C,C]3 | %14
 [G,DF]>[G,DF][G,DF] [G,DF][G,B,F][G,B,F] | z2 A, .G,3 |] %16
V:3
 x6 | x6 | x5[K:bass] x | x6 | x6 | x6 | x6 | x6 | x6 | x6 | x6 | x6 | x6 | x6 | x6 | .[CE]3 z3 |] %16
V:4
 x6 | x6 | x6 | x6 | x6 | x6 | x6 | x6 | x6 | x6 | x6 | x6 | x6 | x6 | x6 | C,6 |] %16

